public/homepage-icons/discord.svg

<?xml version="1.0" encoding="UTF-8" standalone="no"?>
<!DOCTYPE svg PUBLIC "-//W3C//DTD SVG 1.1//EN" "http://www.w3.org/Graphics/SVG/1.1/DTD/svg11.dtd">
<!-- Created with Vectornator (http://vectornator.io/) -->
<svg height="100%" stroke-miterlimit="10" style="fill-rule:nonzero;clip-rule:evenodd;stroke-linecap:round;stroke-linejoin:round;" version="1.1" viewBox="0 0 180 180" width="100%" xml:space="preserve" xmlns="http://www.w3.org/2000/svg" xmlns:vectornator="http://vectornator.io" xmlns:xlink="http://www.w3.org/1999/xlink">
<defs/>
<g id="图层-2" vectornator:layerName="图层 2">
<path d="M152.477 33.2139C140.651 27.7996 128.166 23.9585 115.342 21.7887C113.587 24.9259 111.999 28.1536 110.585 31.4584C96.9243 29.3999 83.0325 29.3999 69.3721 31.4584C67.9571 28.1539 66.3693 24.9263 64.6151 21.7887C51.7825 23.9768 39.2895 27.827 27.4514 33.2422C3.94983 68.0133-2.42108 101.921 0.764374 135.347L0.764374 135.347C14.5275 145.516 29.9324 153.249 46.3094 158.211C49.997 153.252 53.26 147.99 56.0639 142.482C50.7383 140.493 45.5982 138.039 40.7029 135.149C41.9913 134.214 43.2513 133.251 44.4689 132.317C73.3078 145.879 106.692 145.879 135.531 132.317C136.762 133.322 138.022 134.285 139.296 135.149C134.392 138.044 129.242 140.503 123.907 142.496C126.708 148.002 129.971 153.259 133.662 158.211C150.053 153.269 165.469 145.539 179.235 135.361L179.235 135.361C182.973 96.5974 172.85 63.0015 152.477 33.2139ZM60.0988 114.79C51.222 114.79 43.8884 106.734 43.8884 96.824C43.8884 86.9136 50.9672 78.7872 60.0705 78.7872C69.1739 78.7872 76.4509 86.9136 76.2951 96.824C76.1394 106.734 69.1455 114.79 60.0988 114.79ZM119.901 114.79C111.01 114.79 103.704 106.734 103.704 96.824C103.704 86.9136 110.783 78.7872 119.901 78.7872C129.018 78.7872 136.238 86.9136 136.083 96.824C135.927 106.734 128.947 114.79 119.901 114.79Z" fill="#000000" fill-rule="nonzero" opacity="1" stroke="none" vectornator:layerName="path"/>
</g>
</svg>

<svg xmlns="http://www.w3.org/2000/svg" xmlns:vectornator="http://vectornator.io" xml:space="preserve" stroke-miterlimit="10" style="fill-rule:nonzero;clip-rule:evenodd;stroke-linecap:round;stroke-linejoin:round" viewBox="0 0 180 180"><g vectornator:layerName="图层 2"><path vectornator:layerName="path" d="M152.477 33.214a148.87 148.87 0 0 0-37.135-11.425 101.952 101.952 0 0 0-4.757 9.67 138.291 138.291 0 0 0-41.213 0 102.47 102.47 0 0 0-4.757-9.67 149.916 149.916 0 0 0-37.164 11.453C3.95 68.013-2.42 101.921.764 135.347a149.68 149.68 0 0 0 45.545 22.864 109.95 109.95 0 0 0 9.755-15.729 96.912 96.912 0 0 1-15.361-7.333 177.25 177.25 0 0 0 3.766-2.832 106.992 106.992 0 0 0 91.062 0 53.43 53.43 0 0 0 3.765 2.832 97.151 97.151 0 0 1-15.389 7.347 108.979 108.979 0 0 0 9.755 15.715 149.01 149.01 0 0 0 45.573-22.85c3.738-38.764-6.385-72.36-26.758-102.147ZM60.099 114.79c-8.877 0-16.21-8.056-16.21-17.966 0-9.91 7.078-18.037 16.181-18.037 9.104 0 16.38 8.127 16.225 18.037-.156 9.91-7.15 17.966-16.196 17.966Zm59.802 0c-8.891 0-16.197-8.056-16.197-17.966 0-9.91 7.079-18.037 16.197-18.037 9.117 0 16.337 8.127 16.182 18.037-.156 9.91-7.136 17.966-16.182 17.966Z"/></g></svg>
